!! 00000] TT[WS
!!!OTL: Zao nian jin
!!!ARE: Asia, China,ÿShanxi  Ningwu
!! Ethnic Group: Han
!! WI, 208 (2)
!!!SCT: J0246
!!!YEM: Copyright 1995, estate of Helmut Schaffrath.
**kern
*ICvox
*Ivox
*M2/4
*k[f#]
*G:
{8dd
8dd
16gg
16aa
16gg
16ee
=1
2dd
=2
4gg
8b
8a
=3
8g
16g
16b
12a
12g
12e
=4
2d}
=5
{8.dd
16b
8dd
8b
=6
8a
8e
4g
=7
8a
16a
16b
12a
12g
12e
=8
2dd}
=9
{8e
8d
4e
=10
4a
8dd
8b
=11
8cc
8a
8a
8g}
=12
{16a
16b
16a
16b
8a
8b
=13
8e
8d
8B
8d
=14
8.g
16e
16e
16d
8B
=15
2a}
==
!!!AGN: Xiaodiao. Suku
!!!ONB: ESAC (Essen Associative Code) Database: CHINA
!!!AMT: simple duple
!!!AIN: vox
!!!EED: Helmut Schaffrath
!!!EEV: 1.0
*-
